X:317
T:Yuksek yuksek tepelere
T:To the high, high peaks
Z:Jack Campin, http://www.campin.me.uk/
F:Jack Campin's Nine-Note Tunebook
% last edit 05-02-2013
G:women's dance from Edirne
M:9/8
L:1/8
Q:9/8=32
K:DMin
z2 CD D2 A3 |A2       A2 AB cAG|AG F2 G2 A2G|G2- G2- G2 z3:|
A3  B cB A2G|G/F/G/A/ GF ED C3 |F2 FE FE GED|D2- D2- D2 z3:|
z2 CD D2 A3 |A2       A2 AB cAG|AG F2 G2 A2G|G2- G2- G2 z3:|
Bc2 B cB cAG|G/F/G/A/ GF ED C3 |FF FE FE GED|D2- D2- D2 z3 |
A3  B cB A2G|G/F/G/A/ GF ED C3 |FF FE FE GED|D2- D2- D2 z3|]

